X: 4
T: The Swallow's Nest
R: reel
M: 4/4
L: 1/8
K: Gmaj
|G3A GEDE|G2BG AedB|AE3 A2 (3Bcd|e2fa gedB|
G3A GEDE|G2 (3Bcd efge|dG3 EGDG|1FGAF GcBA:|2FGAF G2 z2|:
eg3 edBA|GEDE G2 (3Bcd|eaag aged|B3d e3g|
dg3 agba|aged e2ge|dG3 EGDG|FGAF G2 z2:|


Tune 743	Setting 13831

